contributed-vectors/tigad.svg

<?xml version="1.0" encoding="UTF-8" standalone="no"?>
<svg
   xmlns:dc="http://purl.org/dc/elements/1.1/"
   xmlns:cc="http://creativecommons.org/ns#"
   xmlns:rdf="http://www.w3.org/1999/02/22-rdf-syntax-ns#"
   xmlns:svg="http://www.w3.org/2000/svg"
   xmlns="http://www.w3.org/2000/svg"
   xmlns:sodipodi="http://sodipodi.sourceforge.net/DTD/sodipodi-0.dtd"
   xmlns:inkscape="http://www.inkscape.org/namespaces/inkscape"
   viewBox="0 0 192 192"
   version="1.1"
   id="svg16"
   sodipodi:docname="tigad_pro.svg"
   inkscape:version="0.92.4 (5da689c313, 2019-01-14)">
  <metadata
     id="metadata20">
    <rdf:RDF>
      <cc:Work
         rdf:about="">
        <dc:format>image/svg+xml</dc:format>
        <dc:type
           rdf:resource="http://purl.org/dc/dcmitype/StillImage" />
        <dc:title></dc:title>
      </cc:Work>
    </rdf:RDF>
  </metadata>
  <sodipodi:namedview
     pagecolor="#ffffff"
     bordercolor="#666666"
     borderopacity="1"
     objecttolerance="10"
     gridtolerance="10"
     guidetolerance="10"
     inkscape:pageopacity="0"
     inkscape:pageshadow="2"
     inkscape:window-width="1920"
     inkscape:window-height="1017"
     id="namedview18"
     showgrid="true"
     inkscape:zoom="3.4766083"
     inkscape:cx="97.586602"
     inkscape:cy="98.440681"
     inkscape:window-x="-8"
     inkscape:window-y="-8"
     inkscape:window-maximized="1"
     inkscape:current-layer="svg16"
     inkscape:snap-global="false">
    <inkscape:grid
       type="xygrid"
       id="grid827"
       spacingx="4"
       spacingy="4" />
  </sodipodi:namedview>
  <defs
     id="defs4">
    <style
       id="style2">.a{fill:none;stroke:#b1b5bd;stroke-linecap:round;stroke-linejoin:round;isolation:isolate;opacity:0.63;}</style>
  </defs>
  <path
     style="fill:#71a372;stroke:none;stroke-width:1.25203812px;stroke-linecap:butt;stroke-linejoin:miter;stroke-opacity:1"
     d="M 100.91477,15.762288 71.884462,94.959001 17.898283,184.08714 4.1470856,177.46618 87.418223,8.3773867 Z"
     id="path839"
     inkscape:connector-curvature="0" />
  <path
     style="fill:#71a372;stroke:none;stroke-width:1.25203812px;stroke-linecap:butt;stroke-linejoin:miter;stroke-opacity:1"
     d="m 125.61599,130.61026 -31.067511,-53.222233 6.111641,-7.639555 25.46518,26.73844 12.47793,41.762898 -10.18606,-3.31048 z"
     id="path837"
     inkscape:connector-curvature="0" />
  <path
     style="fill:#73ada4;stroke:none;stroke-width:1.25203812px;stroke-linecap:butt;stroke-linejoin:miter;stroke-opacity:1"
     d="m 63.990261,148.94518 v -9.42211 l 61.625729,-8.91281 12.98724,7.63955 -35.9059,8.65816 z"
     id="path835"
     inkscape:connector-curvature="0"
     sodipodi:nodetypes="cccccc" />
  <path
     style="fill:#96dfd3;stroke:none;stroke-width:1.25203812px;stroke-linecap:butt;stroke-linejoin:miter;stroke-opacity:1"
     d="m 63.990261,148.94518 60.352469,10.95004 59.84318,0.76396 -83.27114,-144.896892 17.31632,68.501337 20.37214,53.986185 z"
     id="path833"
     inkscape:connector-curvature="0" />
  <path
     style="fill:#56595b;stroke:none;stroke-width:1.25203812px;stroke-linecap:butt;stroke-linejoin:miter;stroke-opacity:1"
     d="M 17.898283,184.08714 63.735609,111.76603 101.16942,73.058946 63.990261,148.94518 184.18591,160.65918 Z"
     id="path831"
     inkscape:connector-curvature="0" />
  <path
     style="fill:#98dc9a;stroke-width:1.25203812"
     d="M 17.898283,184.08714 100.91477,15.762288 138.60323,138.24981 101.16942,73.058946 Z"
     id="path829"
     inkscape:connector-curvature="0" />
</svg>

<svg xmlns="http://www.w3.org/2000/svg" id="svg16" version="1.1" viewBox="0 0 192 192"><defs id="defs4"><style id="style2">.a{fill:none;stroke:#b1b5bd;stroke-linecap:round;stroke-linejoin:round;isolation:isolate;opacity:.63}</style></defs><path id="path839" d="M100.915 15.762 71.885 94.96l-53.987 89.128-13.75-6.62 83.27-169.09Z" style="fill:#71a372;stroke:none;stroke-width:1.25203812px;stroke-linecap:butt;stroke-linejoin:miter;stroke-opacity:1"/><path id="path837" d="M125.616 130.61 94.548 77.388l6.112-7.64 25.465 26.739 12.478 41.763-10.186-3.31z" style="fill:#71a372;stroke:none;stroke-width:1.25203812px;stroke-linecap:butt;stroke-linejoin:miter;stroke-opacity:1"/><path id="path835" d="M63.99 148.945v-9.422l61.626-8.913 12.987 7.64-35.906 8.658z" style="fill:#73ada4;stroke:none;stroke-width:1.25203812px;stroke-linecap:butt;stroke-linejoin:miter;stroke-opacity:1"/><path id="path833" d="m63.99 148.945 60.353 10.95 59.843.764-83.271-144.897 17.316 68.502 20.372 53.986z" style="fill:#96dfd3;stroke:none;stroke-width:1.25203812px;stroke-linecap:butt;stroke-linejoin:miter;stroke-opacity:1"/><path id="path831" d="m17.898 184.087 45.838-72.321 37.433-38.707-37.179 75.886 120.196 11.714Z" style="fill:#56595b;stroke:none;stroke-width:1.25203812px;stroke-linecap:butt;stroke-linejoin:miter;stroke-opacity:1"/><path id="path829" d="m17.898 184.087 83.017-168.325 37.688 122.488-37.434-65.191Z" style="fill:#98dc9a;stroke-width:1.25203812"/></svg>
